icons/1_Primary/Hiven.svg

<svg xmlns="http://www.w3.org/2000/svg" width="1024" height="1024" fill="none">
   <g clip-path="url(#a)">
      <path fill="#ABABFF" d="M512 1024c282.77 0 512-229.23 512-512S794.77 0 512 0 0 229.23 0 512s229.23 512 512 512Z"/>
      <path fill="#fff" d="M611.09 714.52 518.55 768V517.54l216.84-125.22v250.45l-72.59 41.88v-85.5l-51.71 29.57v85.8Zm-316-333.29L512 506.46l216.87-125.23L512 256 295.09 381.23ZM505.48 768 288.61 642.77V392.32L505.5 517.54 505.48 768Z"/>
   </g>
   <defs>
      <clipPath id="a">
         <path fill="#fff" d="M0 0h1024v1024H0z"/>
      </clipPath>
   </defs>
</svg>

<svg width="1024" height="1024" viewBox="0 0 1024 1024" fill="none" xmlns="http://www.w3.org/2000/svg">
<g clip-path="url(#clip0_2_2412)">
<path d="M512 1024C794.77 1024 1024 794.77 1024 512C1024 229.23 794.77 0 512 0C229.23 0 0 229.23 0 512C0 794.77 229.23 1024 512 1024Z" fill="#ABABFF"/>
<path d="M611.09 714.52L518.55 768V517.54L735.39 392.32V642.77L662.8 684.65V599.15L611.09 628.72V714.52ZM295.09 381.23L512 506.46L728.87 381.23L512 256L295.09 381.23ZM505.48 768L288.61 642.77V392.32L505.5 517.54L505.48 768Z" fill="white"/>
</g>
<defs>
<clipPath id="clip0_2_2412">
<rect width="1024" height="1024" fill="white"/>
</clipPath>
</defs>
</svg>
